X: 5
T: The Headlands
R: strathspey
M: 4/4
L: 1/8
K: Amaj
e>c|d>c B>A B<c E>A|F<A d>f ~e2 (3efg|a>e f<a f>e d<c|c>B A<c B2 c>B|d>c B>A B<c E>A|F>A d>f ~a2 g>f|e<a e>c B>f e>d|c2 ~A2 A2:||: (3efg | a>e f<a c>e c<A | d>A d<f e2 (3efg | a>e f<a f>e d<c |1 c>B A<c B2 (3efg |a>e e<a c>e c<A | d>A d<f a2 g>f | e<a A>c B>f e>d | ~c2 A2 A2 :|2 c>B Ac B2 e>d |d>c B>A A<c E>A | F>A d>f ~a2 g>f | e<a A>c B>f e>d | ~c2 A2 A2 ||


Tune 1950	Setting 15377

